assets/img/athletejuvo/persona1.svg

<?xml version="1.0" encoding="UTF-8"?>
<svg width="768px" height="1052px" viewBox="0 0 768 1052" version="1.1" xmlns="http://www.w3.org/2000/svg" xmlns:xlink="http://www.w3.org/1999/xlink">
    <!-- Generator: Sketch 52.5 (67469) - http://www.bohemiancoding.com/sketch -->
    <title>Artboard</title>
    <desc>Created with Sketch.</desc>
    <defs>
        <linearGradient x1="50%" y1="0%" x2="50%" y2="100%" id="linearGradient-1">
            <stop stop-color="#CFD9DF" offset="0%"></stop>
            <stop stop-color="#E2EBF0" offset="100%"></stop>
        </linearGradient>
        <rect id="path-2" x="192" y="412" width="568" height="682" rx="48"></rect>
        <filter x="-26.4%" y="-22.0%" width="152.8%" height="144.0%" filterUnits="objectBoundingBox" id="filter-3">
            <feMorphology radius="25" operator="dilate" in="SourceAlpha" result="shadowSpreadOuter1"></feMorphology>
            <feOffset dx="0" dy="0" in="shadowSpreadOuter1" result="shadowOffsetOuter1"></feOffset>
            <feGaussianBlur stdDeviation="25" in="shadowOffsetOuter1" result="shadowBlurOuter1"></feGaussianBlur>
            <feColorMatrix values="0 0 0 0 0   0 0 0 0 0   0 0 0 0 0  0 0 0 0.126217165 0" type="matrix" in="shadowBlurOuter1"></feColorMatrix>
        </filter>
        <circle id="path-4" cx="120" cy="120" r="120"></circle>
        <path d="M12,160 L-3.19744231e-14,160 L-3.19744231e-14,-1.42108547e-14 L264,-1.42108547e-14 L264,160 L252,160 C252,226.27417 198.27417,280 132,280 C65.72583,280 12,226.27417 12,160 Z" id="path-6"></path>
        <path d="M124,144.610951 L124,163 L128,163 C167.764502,163 200,195.235498 200,235 L200,244 L0,244 L0,235 C-4.86974701e-15,195.235498 32.235498,163 72,163 L76,163 L76,144.610951 C58.7626345,136.422372 46.3722246,119.687011 44.3051388,99.8812385 C38.4803105,99.0577866 34,94.0521096 34,88 L34,74 C34,68.0540074 38.3245733,63.1180731 44,62.1659169 L44,56 C44,25.072054 69.072054,5.68137151e-15 100,0 C130.927946,-5.68137151e-15 156,25.072054 156,56 L156,62.1659169 C161.675427,63.1180731 166,68.0540074 166,74 L166,88 C166,94.0521096 161.51969,99.0577866 155.694861,99.8812385 C153.627775,119.687011 141.237365,136.422372 124,144.610951 Z" id="path-8"></path>
        <path d="M108,13.0708856 L108,32 C108,45.254834 118.745166,56 132,56 C145.254834,56 156,45.254834 156,32 L156,13.0708856 C173.918699,15.075938 187.720158,20.5518341 187.995797,34.6449676 C213.853567,45.5680933 232,71.1646257 232,100.999485 L232,110 L32,110 L32,100.999485 C32,71.1646257 50.1464329,45.5680933 76.0042027,34.6449832 C76.2798424,20.5518341 90.0813006,15.075938 108,13.0708856 Z" id="path-10"></path>
        <rect id="path-12" x="0" y="0" width="264" height="280"></rect>
        <path d="M48.7246602,89.2187346 C44.7420117,91.1711421 42,95.2653555 42,100 L42,113 C42,119.018625 46.4308707,124.002364 52.2085808,124.867187 C53.9518066,145.114792 66.4692178,162.282984 84,170.610951 L84,189 L80,189 C78.4137385,189 76.8394581,189.051297 75.2787271,189.152323 C70.3620966,186.639548 65.7724391,183.578174 61.590479,180.048925 C57.2814481,181.318646 52.7202934,182 48,182 C21.490332,182 0,160.509668 0,134 C0,119.590902 6.34904132,106.664702 16.4021743,97.866349 C11.1175746,90.6060809 8,81.6671147 8,72 C8,50.160623 23.9112243,32.0375116 44.7738169,28.5905219 C51.0188047,11.8901624 67.1208542,0 86,0 C94.0143172,0 101.528186,2.14267429 108,5.88641659 C114.471814,2.14267429 121.985683,0 130,0 C148.879146,0 164.981195,11.8901624 171.226183,28.5905219 C192.088776,32.0375116 208,50.160623 208,72 C208,81.6671147 204.882425,90.6060809 199.597826,97.866349 C209.650959,106.664702 216,119.590902 216,134 C216,160.509668 194.509668,182 168,182 C163.279707,182 158.718552,181.318646 154.409521,180.048925 C150.227561,183.578174 145.637903,186.639548 140.721273,189.152323 C139.160542,189.051297 137.586262,189 136,189 L132,189 L132,170.610951 C149.530782,162.282984 162.048193,145.114792 163.791419,124.867187 C169.569129,124.002364 174,119.018625 174,113 L174,100 C174,95.778427 171.820067,92.0660046 168.524466,89.9269981 C167.450514,89.5343912 166.370126,89.0424011 165.289302,88.4564081 C164.868503,88.3367332 164.43828,88.2394463 164,88.1659169 L164,87.7130302 C155.319369,82.4100235 146.764694,71.1747746 141.449951,56.7992877 C131.312295,58.8351061 119.547256,60 107,60 C95.038684,60 83.7882341,58.9413637 73.9808476,57.0787685 C68.7546917,71.0641476 60.4637821,82.0431875 52,87.4230168 L52,88.1659169 C50.9777341,88.3374206 49.9992949,88.6381729 49.0820602,89.050796 C48.9628927,89.1079465 48.8437566,89.1639284 48.7246602,89.2187346 Z" id="path-14"></path>
    </defs>
    <g id="Page-1" stroke="none" stroke-width="1" fill="none" fill-rule="evenodd">
        <g id="Artboard" transform="translate(-92.000000, -142.000000)">
            <g id="Rectangle">
                <use fill="black" fill-opacity="1" filter="url(#filter-3)" xlink:href="#path-2"></use>
                <use fill="url(#linearGradient-1)" fill-rule="evenodd" xlink:href="#path-2"></use>
            </g>
            <rect id="Rectangle" fill="url(#linearGradient-1)" x="136" y="298" width="679" height="818" rx="48"></rect>
            <g id="Avataaar/Circle" transform="translate(344.000000, 132.000000)">
                <g id="Circle" stroke-width="1" fill-rule="evenodd" transform="translate(12.000000, 40.000000)">
                    <mask id="mask-5" fill="white">
                        <use xlink:href="#path-4"></use>
                    </mask>
                    <use id="Circle-Background" fill="#E6E6E6" xlink:href="#path-4"></use>
                    <g id="Color/Palette/Blue-01" mask="url(#mask-5)" fill="#65C9FF">
                        <rect id="🖍Color" x="0" y="0" width="240" height="240"></rect>
                    </g>
                </g>
                <mask id="mask-7" fill="white">
                    <use xlink:href="#path-6"></use>
                </mask>
                <g id="Mask"></g>
                <g id="Avataaar" stroke-width="1" fill-rule="evenodd" mask="url(#mask-7)">
                    <g id="Body" transform="translate(32.000000, 36.000000)">
                        <mask id="mask-9" fill="white">
                            <use xlink:href="#path-8"></use>
                        </mask>
                        <use fill="#D0C6AC" xlink:href="#path-8"></use>
                        <g id="Skin/👶🏽-03-Brown" mask="url(#mask-9)" fill="#D08B5B">
                            <g transform="translate(-32.000000, 0.000000)" id="Color">
                                <rect x="0" y="0" width="264" height="244"></rect>
                            </g>
                        </g>
                        <path d="M156,94 L156,102 C156,132.927946 130.927946,158 100,158 C69.072054,158 44,132.927946 44,102 L44,94 C44,124.927946 69.072054,150 100,150 C130.927946,150 156,124.927946 156,94 Z" id="Neck-Shadow" fill-opacity="0.100000001" fill="#000000" mask="url(#mask-9)"></path>
                    </g>
                    <g id="Clothing/Hoodie" transform="translate(0.000000, 170.000000)">
                        <mask id="mask-11" fill="white">
                            <use xlink:href="#path-10"></use>
                        </mask>
                        <use id="Hoodie" fill="#B7C1DB" fill-rule="evenodd" xlink:href="#path-10"></use>
                        <g id="Color/Palette/Red" mask="url(#mask-11)" fill="#FF5C5C" fill-rule="evenodd">
                            <rect id="🖍Color" x="0" y="0" width="264" height="110"></rect>
                        </g>
                        <path d="M102,61.7390531 L102,110 L95,110 L95,58.1502625 C97.2037542,59.4600576 99.5467694,60.6607878 102,61.7390531 Z M169,58.1502625 L169,98.5 C169,100.432997 167.432997,102 165.5,102 C163.567003,102 162,100.432997 162,98.5 L162,61.7390531 C164.453231,60.6607878 166.796246,59.4600576 169,58.1502625 Z" id="Straps" fill="#F4F4F4" fill-rule="evenodd" mask="url(#mask-11)"></path>
                        <path d="M131.989815,67.9999995 C98.5309773,67.9967574 65.5,52.0180096 65.5,32.3076923 C65.5,21.2428847 75.9093095,15.5711782 90.9601329,12.7243537 C81.8750795,16.0744598 76,21.7060546 76,31.0769231 C76,51.4665186 103.814501,67.9960167 131.989815,67.9999993 Z M173.039867,12.7243537 C188.09069,15.5711782 198.5,21.2428847 198.5,32.3076923 C198.5,52.0180096 165.469023,67.9967574 132.010185,67.9999995 C160.185499,67.9960167 188,51.4665186 188,31.0769231 C188,21.7060546 182.124921,16.0744598 173.039867,12.7243537 Z" id="Shadow" fill-opacity="0.16" fill="#000000" fill-rule="evenodd" mask="url(#mask-11)"></path>
                    </g>
                    <g id="Face" transform="translate(76.000000, 82.000000)" fill="#000000">
                        <g id="Mouth/Twinkle" transform="translate(2.000000, 52.000000)" fill-opacity="0.599999964" fill-rule="nonzero">
                            <path d="M40,16 C40,21.371763 46.1581544,25 54,25 C61.8418456,25 68,21.371763 68,16 C68,14.8954305 67.050301,14 66,14 C64.7072748,14 64.1302316,14.9051755 64,16 C62.7575758,18.9378973 59.6832595,20.7163149 54,21 C48.3167405,20.7163149 45.2424242,18.9378973 44,16 C43.8697684,14.9051755 43.2927252,14 42,14 C40.949699,14 40,14.8954305 40,16 Z" id="Mouth"></path>
                        </g>
                        <g id="Nose/Default" transform="translate(28.000000, 40.000000)" fill-opacity="0.16">
                            <path d="M16,8 C16,12.418278 21.372583,16 28,16 C34.627417,16 40,12.418278 40,8" id="Nose"></path>
                        </g>
                        <g id="Eyes/Default-😀" transform="translate(0.000000, 8.000000)" fill-opacity="0.599999964">
                            <circle id="Eye" cx="30" cy="22" r="6"></circle>
                            <circle id="Eye" cx="82" cy="22" r="6"></circle>
                        </g>
                        <g id="Eyebrow/Outline/Default" fill-opacity="0.599999964">
                            <g id="I-Browse" transform="translate(12.000000, 6.000000)">
                                <path d="M3.63024536,11.1585767 C7.54515501,5.64986673 18.2779197,2.56083721 27.5230268,4.83118046 C28.5957248,5.0946055 29.6788665,4.43856013 29.9422916,3.36586212 C30.2057166,2.2931641 29.5496712,1.21002236 28.4769732,0.94659732 C17.7403633,-1.69001789 5.31209962,1.88699832 0.369754639,8.84142326 C-0.270109626,9.74178291 -0.0589363917,10.9903811 0.84142326,11.6302454 C1.74178291,12.2701096 2.9903811,12.0589364 3.63024536,11.1585767 Z" id="Eyebrow" fill-rule="nonzero"></path>
                                <path d="M61.6302454,11.1585767 C65.545155,5.64986673 76.2779197,2.56083721 85.5230268,4.83118046 C86.5957248,5.0946055 87.6788665,4.43856013 87.9422916,3.36586212 C88.2057166,2.2931641 87.5496712,1.21002236 86.4769732,0.94659732 C75.7403633,-1.69001789 63.3120996,1.88699832 58.3697546,8.84142326 C57.7298904,9.74178291 57.9410636,10.9903811 58.8414233,11.6302454 C59.7417829,12.2701096 60.9903811,12.0589364 61.6302454,11.1585767 Z" id="Eyebrow" fill-rule="nonzero" transform="translate(73.000154, 6.039198) scale(-1, 1) translate(-73.000154, -6.039198) "></path>
                            </g>
                        </g>
                    </g>
                    <g id="Top">
                        <mask id="mask-13" fill="white">
                            <use xlink:href="#path-12"></use>
                        </mask>
                        <g id="Mask"></g>
                        <g id="Top/Long-Hair/Curly" mask="url(#mask-13)">
                            <g transform="translate(-1.000000, 0.000000)">
                                <path d="M105.984735,27.7643628 C114.013215,26.6267967 122.796163,26 132,26 C142.358003,26 152.182939,26.7938545 160.999342,28.2161842 C183.451688,38.7497687 199,61.559133 199,88 L199,105.044138 C187.461887,104.672508 173.831239,90.7644306 166.449951,70.7992877 C156.312295,72.8351061 144.547256,74 132,74 C120.038684,74 108.788234,72.9413637 98.9808476,71.0787685 C91.6758772,90.6271291 78.3831001,104.301811 67,105.021902 L67,88 C67,61.1745453 83.0039076,38.0870034 105.984735,27.7643628 Z" id="Shadow" fill-opacity="0.16" fill="#000000" fill-rule="evenodd"></path>
                                <g id="Hair" stroke-width="1" fill="none" fill-rule="evenodd" transform="translate(25.000000, 10.000000)">
                                    <mask id="mask-15" fill="white">
                                        <use xlink:href="#path-14"></use>
                                    </mask>
                                    <use id="Curly!" fill="#314756" xlink:href="#path-14"></use>
                                    <g id="Color/Hair/Brown-Dark" mask="url(#mask-15)" fill="#4A312C">
                                        <g transform="translate(-24.000000, -10.000000)" id="Color">
                                            <rect x="0" y="0" width="264" height="280"></rect>
                                        </g>
                                    </g>
                                </g>
                                <g id="Facial-Hair/-Blank" fill="none" transform="translate(49.000000, 72.000000)"></g>
                                <g id="Top/_Resources/Blank" fill="none" transform="translate(62.000000, 85.000000)"></g>
                            </g>
                        </g>
                    </g>
                </g>
            </g>
            <text id="Tammy" font-family="Nunito-SemiBold, Nunito" font-size="45" font-weight="500" fill="#000000">
                <tspan x="401" y="494">Tammy</tspan>
            </text>
            <text id="captain-of-the-colle" font-family="Nunito-SemiBold, Nunito" font-size="25" font-weight="500" fill="#686767">
                <tspan x="286.85" y="535">captain of the college rugby team</tspan>
            </text>
            <text id="During-one-of-the-pr" font-family="Nunito-Regular, Nunito" font-size="30" font-weight="normal" fill="#000000">
                <tspan x="208" y="609">During one of the pre-season practices, </tspan>
                <tspan x="208" y="650">she got a partial ACL (anterior cruciate </tspan>
                <tspan x="208" y="691">ligament) and sprained LCL (lateral </tspan>
                <tspan x="208" y="732">collateral ligament) tear.</tspan>
                <tspan x="208" y="773" font-family="Nunito-Bold, Nunito" font-weight="bold"></tspan>
                <tspan x="208" y="814" font-family="Nunito-Bold, Nunito" font-weight="bold">She hopes to recover as soon as </tspan>
                <tspan x="208" y="855" font-family="Nunito-Bold, Nunito" font-weight="bold">possible</tspan>
                <tspan x="321.58" y="855"> so she attempts to connect </tspan>
                <tspan x="208" y="896">with other athletes to get useful </tspan>
                <tspan x="208" y="937" font-family="Nunito-Bold, Nunito" font-weight="bold">recovery tips.</tspan>
            </text>
        </g>
    </g>
</svg>

<svg width="768" height="1052" viewBox="0 0 768 1052" xmlns="http://www.w3.org/2000/svg" xmlns:xlink="http://www.w3.org/1999/xlink"><title>Artboard</title><defs><linearGradient x1="50%" y1="0%" x2="50%" y2="100%" id="c"><stop stop-color="#CFD9DF" offset="0%"/><stop stop-color="#E2EBF0" offset="100%"/></linearGradient><rect id="b" x="192" y="412" width="568" height="682" rx="48"/><filter x="-26.4%" y="-22%" width="152.8%" height="144%" filterUnits="objectBoundingBox" id="a"><feMorphology radius="25" operator="dilate" in="SourceAlpha" result="shadowSpreadOuter1"/><feOffset in="shadowSpreadOuter1" result="shadowOffsetOuter1"/><feGaussianBlur stdDeviation="25" in="shadowOffsetOuter1" result="shadowBlurOuter1"/><feColorMatrix values="0 0 0 0 0 0 0 0 0 0 0 0 0 0 0 0 0 0 0.126217165 0" in="shadowBlurOuter1"/></filter><circle id="d" cx="120" cy="120" r="120"/><path d="M12 160H0V0h264v160h-12c0 66.274-53.726 120-120 120S12 226.274 12 160z" id="f"/><path d="M124 144.611V163h4c39.765 0 72 32.235 72 72v9H0v-9c0-39.765 32.235-72 72-72h4v-18.389c-17.237-8.189-29.628-24.924-31.695-44.73C38.48 99.058 34 94.052 34 88V74c0-5.946 4.325-10.882 10-11.834V56c0-30.928 25.072-56 56-56s56 25.072 56 56v6.166c5.675.952 10 5.888 10 11.834v14c0 6.052-4.48 11.058-10.305 11.881-2.067 19.806-14.458 36.541-31.695 44.73z" id="h"/><path d="M108 13.07V32c0 13.255 10.745 24 24 24s24-10.745 24-24V13.07c17.919 2.006 31.72 7.482 31.996 21.575C213.854 45.568 232 71.165 232 100.999V110H32v-9c0-29.835 18.146-55.432 44.004-66.355.276-14.093 14.077-19.57 31.996-21.574z" id="j"/><path id="l" d="M0 0h264v280H0z"/><path d="M48.725 89.219A12 12 0 0 0 42 100v13c0 6.019 4.43 11.002 10.209 11.867 1.743 20.248 14.26 37.416 31.791 45.744V189h-4c-1.586 0-3.16.051-4.721.152a72.113 72.113 0 0 1-13.689-9.103A48.013 48.013 0 0 1 48 182c-26.51 0-48-21.49-48-48 0-14.41 6.349-27.335 16.402-36.134A43.802 43.802 0 0 1 8 72c0-21.84 15.911-39.962 36.774-43.41C51.019 11.89 67.12 0 86 0a43.798 43.798 0 0 1 22 5.886A43.798 43.798 0 0 1 130 0c18.88 0 34.981 11.89 41.226 28.59C192.09 32.039 208 50.16 208 72a43.802 43.802 0 0 1-8.402 25.866C209.65 106.665 216 119.591 216 134c0 26.51-21.49 48-48 48-4.72 0-9.281-.681-13.59-1.951a72.113 72.113 0 0 1-13.689 9.103A73.084 73.084 0 0 0 136 189h-4v-18.389c17.53-8.328 30.048-25.496 31.791-45.744C169.57 124.002 174 119.02 174 113v-13a11.99 11.99 0 0 0-5.476-10.073 24.329 24.329 0 0 1-3.235-1.47c-.42-.12-.85-.218-1.289-.291v-.453c-8.68-5.303-17.235-16.538-22.55-30.914C131.312 58.835 119.547 60 107 60c-11.961 0-23.212-1.059-33.02-2.921C68.756 71.064 60.465 82.043 52 87.423v.743a11.912 11.912 0 0 0-3.275 1.053z" id="n"/></defs><g transform="translate(-92 -142)" fill="none" fill-rule="evenodd"><use fill="#000" filter="url(#a)" xlink:href="#b"/><use fill="url(#c)" xlink:href="#b"/><rect fill="url(#c)" x="136" y="298" width="679" height="818" rx="48"/><g transform="translate(344 132)"><g transform="translate(12 40)"><mask id="e" fill="#fff"><use xlink:href="#d"/></mask><use fill="#E6E6E6" xlink:href="#d"/><path d="M0 0h240v240H0z" mask="url(#e)" fill="#65C9FF"/></g><mask id="g" fill="#fff"><use xlink:href="#f"/></mask><g mask="url(#g)"><g transform="translate(32 36)"><mask id="i" fill="#fff"><use xlink:href="#h"/></mask><use fill="#D0C6AC" xlink:href="#h"/><path d="M0 0h264v244H0z" transform="translate(-32)" mask="url(#i)" fill="#D08B5B"/><path d="M156 94v8c0 30.928-25.072 56-56 56s-56-25.072-56-56v-8c0 30.928 25.072 56 56 56s56-25.072 56-56z" fill-opacity=".1" fill="#000" mask="url(#i)"/></g><g transform="translate(0 170)"><mask id="k" fill="#fff"><use xlink:href="#j"/></mask><use fill="#B7C1DB" xlink:href="#j"/><path d="M0 0h264v110H0z" mask="url(#k)" fill="#FF5C5C"/><path d="M102 61.74V110h-7V58.15a64.54 64.54 0 0 0 7 3.59zm67-3.59V98.5a3.5 3.5 0 1 1-7 0V61.74a64.54 64.54 0 0 0 7-3.59z" fill="#F4F4F4" mask="url(#k)"/><path d="M131.99 68C98.53 67.997 65.5 52.018 65.5 32.308c0-11.065 10.41-16.737 25.46-19.584C81.875 16.074 76 21.706 76 31.077c0 20.39 27.815 36.919 55.99 36.923zm41.05-55.276c15.05 2.847 25.46 8.519 25.46 19.584 0 19.71-33.031 35.689-66.49 35.692C160.185 67.996 188 51.467 188 31.077c0-9.37-5.875-15.003-14.96-18.353z" fill-opacity=".16" fill="#000" mask="url(#k)"/></g><g fill="#000"><path d="M118 150c0 5.372 6.158 9 14 9s14-3.628 14-9c0-1.105-.95-2-2-2-1.293 0-1.87.905-2 2-1.242 2.938-4.317 4.716-10 5-5.683-.284-8.758-2.062-10-5-.13-1.095-.707-2-2-2-1.05 0-2 .895-2 2z" fill-opacity=".6" fill-rule="nonzero"/><path d="M120 130c0 4.418 5.373 8 12 8s12-3.582 12-8" fill-opacity=".16"/><g transform="translate(76 90)" fill-opacity=".6"><circle cx="30" cy="22" r="6"/><circle cx="82" cy="22" r="6"/></g><g fill-rule="nonzero" fill-opacity=".6"><path d="M91.63 99.159c3.915-5.51 14.648-8.598 23.893-6.328a2 2 0 0 0 .954-3.884c-10.737-2.637-23.165.94-28.107 7.894a2 2 0 0 0 3.26 2.318zM172.37 99.159c-3.915-5.51-14.648-8.598-23.893-6.328a2 2 0 0 1-.954-3.884c10.737-2.637 23.165.94 28.108 7.894a2 2 0 0 1-3.26 2.318z"/></g></g><mask id="m" fill="#fff"><use xlink:href="#l"/></mask><g mask="url(#m)"><path d="M104.985 27.764C113.013 26.627 121.796 26 131 26c10.358 0 20.183.794 29 2.216C182.451 38.75 198 61.56 198 88v17.044c-11.538-.371-25.169-14.28-32.55-34.245C155.312 72.835 143.547 74 131 74c-11.961 0-23.212-1.059-33.02-2.921-7.304 19.548-20.597 33.223-31.98 33.943V88c0-26.825 16.004-49.913 38.985-60.236z" fill-opacity=".16" fill="#000"/><g transform="translate(24 10)"><mask id="o" fill="#fff"><use xlink:href="#n"/></mask><use fill="#314756" xlink:href="#n"/><path d="M0 0h264v280H0z" transform="translate(-24 -10)" mask="url(#o)" fill="#4A312C"/></g></g></g></g><text font-family="Nunito-SemiBold, Nunito" font-size="45" font-weight="500" fill="#000"><tspan x="401" y="494">Tammy</tspan></text><text font-family="Nunito-SemiBold, Nunito" font-size="25" font-weight="500" fill="#686767"><tspan x="286.85" y="535">captain of the college rugby team</tspan></text><text font-family="Nunito-Regular, Nunito" font-size="30" fill="#000"><tspan x="208" y="609">During one of the pre-season practices, </tspan> <tspan x="208" y="650">she got a partial ACL (anterior cruciate </tspan> <tspan x="208" y="691">ligament) and sprained LCL (lateral </tspan> <tspan x="208" y="732">collateral ligament) tear.</tspan>  <tspan x="208" y="814" font-family="Nunito-Bold, Nunito" font-weight="bold">She hopes to recover as soon as </tspan> <tspan x="208" y="855" font-family="Nunito-Bold, Nunito" font-weight="bold">possible</tspan> <tspan x="321.58" y="855"> so she attempts to connect </tspan> <tspan x="208" y="896">with other athletes to get useful </tspan> <tspan x="208" y="937" font-family="Nunito-Bold, Nunito" font-weight="bold">recovery tips.</tspan></text></g></svg>
